src/assets/filled/Box1.svg

<svg width="24" height="24" viewBox="0 0 24 24"  xmlns="http://www.w3.org/2000/svg">
<path d="M20.0999 6.94C20.0999 7.48 19.8099 7.97 19.3499 8.22L17.6099 9.16L16.1299 9.95L13.0599 11.61C12.7299 11.79 12.3699 11.88 11.9999 11.88C11.6299 11.88 11.2699 11.79 10.9399 11.61L4.6499 8.22C4.1899 7.97 3.8999 7.48 3.8999 6.94C3.8999 6.4 4.1899 5.91 4.6499 5.66L6.6199 4.6L8.1899 3.75L10.9399 2.27C11.5999 1.91 12.3999 1.91 13.0599 2.27L19.3499 5.66C19.8099 5.91 20.0999 6.4 20.0999 6.94Z" />
<path d="M9.89997 12.7901L4.04997 9.87014C3.59997 9.64014 3.07997 9.67014 2.64997 9.93014C2.21997 10.1901 1.96997 10.6501 1.96997 11.1501V16.6801C1.96997 17.6401 2.49997 18.5001 3.35997 18.9301L9.20997 21.8501C9.40997 21.9501 9.62997 22.0001 9.84997 22.0001C10.11 22.0001 10.37 21.9301 10.6 21.7801C11.03 21.5201 11.28 21.0601 11.28 20.5601V15.0301C11.29 14.0801 10.76 13.2201 9.89997 12.7901Z" />
<path d="M22.03 11.1501V16.6801C22.03 17.6301 21.5 18.4901 20.64 18.9201L14.79 21.8501C14.59 21.9501 14.37 22.0001 14.15 22.0001C13.89 22.0001 13.63 21.9301 13.39 21.7801C12.97 21.5201 12.71 21.0601 12.71 20.5601V15.0401C12.71 14.0801 13.24 13.2201 14.1 12.7901L16.25 11.7201L17.75 10.9701L19.95 9.87013C20.4 9.64013 20.92 9.66013 21.35 9.93013C21.77 10.1901 22.03 10.6501 22.03 11.1501Z" />
<path d="M17.6101 9.16L16.1301 9.95L6.62012 4.6L8.19012 3.75L17.3701 8.93C17.4701 8.99 17.5501 9.07 17.6101 9.16Z" />
<path d="M17.75 10.9702V13.2402C17.75 13.6502 17.41 13.9902 17 13.9902C16.59 13.9902 16.25 13.6502 16.25 13.2402V11.7202L17.75 10.9702Z" />
</svg>

<?xml version="1.0" encoding="UTF-8"?>
<svg width="24" height="24" viewBox="0 0 24 24" xmlns="http://www.w3.org/2000/svg">
 <path d="m20.1 6.94c0 0.54-0.29 1.03-0.75 1.28l-1.74 0.94-1.48 0.79-3.07 1.66c-0.33 0.18-0.69 0.27-1.06 0.27s-0.73-0.09-1.06-0.27l-6.29-3.39c-0.46-0.25-0.75-0.74-0.75-1.28s0.29-1.03 0.75-1.28l1.97-1.06 1.57-0.85 2.75-1.48c0.66-0.36 1.46-0.36 2.12 0l6.29 3.39c0.46 0.25 0.75 0.74 0.75 1.28z"/>
 <path d="m9.9 12.79-5.85-2.92c-0.45-0.23-0.97-0.2-1.4 0.06-0.43 0.25996-0.68 0.71996-0.68 1.22v5.53c0 0.96 0.53 1.82 1.39 2.25l5.85 2.92c0.2 0.1 0.42 0.15 0.64 0.15 0.26003 0 0.52003-0.07 0.75003-0.22 0.43-0.26 0.68-0.72 0.68-1.22v-5.53c0.01-0.95-0.52-1.81-1.38-2.24z"/>
 <path d="m22.03 11.15v5.53c0 0.95-0.53 1.81-1.39 2.24l-5.85 2.93c-0.2 0.1-0.42 0.15-0.64 0.15-0.26 0-0.52-0.07-0.76-0.22-0.42-0.26-0.68-0.72-0.68-1.22v-5.52c0-0.96 0.53-1.82 1.39-2.25l2.15-1.07 1.5-0.75 2.2-1.1c0.45-0.23 0.97-0.21 1.4 0.06 0.42 0.25997 0.68 0.71997 0.68 1.22z"/>
 <path d="m17.61 9.16-1.48 0.79-9.51-5.35 1.57-0.85 9.18 5.18c0.1 0.06 0.18 0.14 0.24 0.23z"/>
 <path d="m17.75 10.97v2.27c0 0.41-0.34 0.75-0.75 0.75s-0.75-0.34-0.75-0.75v-1.52l1.5-0.75z"/>
</svg>
